assets/report/china-popculture/B.svg

<svg fill="none" height="19" viewBox="0 0 19 19" width="19" xmlns="http://www.w3.org/2000/svg"><path d="m9.38867 18.4697c4.82523 0 8.81543-3.9902 8.81543-8.8154 0-4.83399-3.9902-8.815433-8.82422-8.815433-4.82519 0-8.806638 3.981443-8.806638 8.815433 0 4.8252 3.990238 8.8154 8.815428 8.8154zm0-1.1426c-4.2539 0-7.67285-3.4277-7.67285-7.6728 0-4.25391 3.41895-7.68164 7.66406-7.68164 4.25392 0 7.68162 3.42773 7.69042 7.68164 0 4.2451-3.4277 7.6728-7.68163 7.6728zm-2.18847-3.7265h2.57519c1.75781 0 2.87401-.8526 2.87401-2.2236 0-1.0635-.7031-1.81938-1.8281-1.96001v-.04394c.8262-.20215 1.3623-.90528 1.3623-1.78418 0-1.16895-.9668-1.95996-2.417-1.95996h-2.5664c-.37793 0-.58887.21972-.58887.60644v6.75875c0 .378.21094.6065.58887.6065zm.46582-4.50001v-2.63672h1.88964c.98434 0 1.56444.4834 1.56444 1.30078s-.7031 1.33594-1.85448 1.33594zm0 3.66501v-2.874h2.09179c1.12499 0 1.79299.5449 1.79299 1.459 0 .9492-.7207 1.415-2.21486 1.415z" fill="#111"/></svg>

<svg width="19" height="19" viewBox="0 0 19 19" fill="none" xmlns="http://www.w3.org/2000/svg">
<path d="M9.38867 18.4697C14.2139 18.4697 18.2041 14.4795 18.2041 9.6543C18.2041 4.82031 14.2139 0.838867 9.37988 0.838867C4.55469 0.838867 0.573242 4.82031 0.573242 9.6543C0.573242 14.4795 4.56348 18.4697 9.38867 18.4697ZM9.38867 17.3271C5.13477 17.3271 1.71582 13.8994 1.71582 9.6543C1.71582 5.40039 5.13477 1.97266 9.37988 1.97266C13.6338 1.97266 17.0615 5.40039 17.0703 9.6543C17.0703 13.8994 13.6426 17.3271 9.38867 17.3271ZM7.2002 13.6006H9.77539C11.5332 13.6006 12.6494 12.748 12.6494 11.377C12.6494 10.3135 11.9463 9.55762 10.8213 9.41699V9.37305C11.6475 9.1709 12.1836 8.46777 12.1836 7.58887C12.1836 6.41992 11.2168 5.62891 9.7666 5.62891H7.2002C6.82227 5.62891 6.61133 5.84863 6.61133 6.23535V12.9941C6.61133 13.3721 6.82227 13.6006 7.2002 13.6006ZM7.66602 9.10059V6.46387H9.55566C10.54 6.46387 11.1201 6.94727 11.1201 7.76465C11.1201 8.58203 10.417 9.10059 9.26562 9.10059H7.66602ZM7.66602 12.7656V9.8916H9.75781C10.8828 9.8916 11.5508 10.4365 11.5508 11.3506C11.5508 12.2998 10.8301 12.7656 9.33594 12.7656H7.66602Z" fill="#111111"/>
</svg>
